src/assets/Navigation/Dashboard_Dark.svg

<svg fill="none" height="46" viewBox="0 0 46 46" width="46" xmlns="http://www.w3.org/2000/svg" xmlns:xlink="http://www.w3.org/1999/xlink"><filter id="a" color-interpolation-filters="sRGB" filterUnits="userSpaceOnUse" height="45.5" width="45.5" x=".25" y=".25"><feFlood flood-opacity="0" result="BackgroundImageFix"/><feColorMatrix in="SourceAlpha" result="hardAlpha" type="matrix" values="0 0 0 0 0 0 0 0 0 0 0 0 0 0 0 0 0 0 127 0"/><feOffset dy="4"/><feGaussianBlur stdDeviation="2"/><feComposite in2="hardAlpha" operator="out"/><feColorMatrix type="matrix" values="0 0 0 0 0 0 0 0 0 0 0 0 0 0 0 0 0 0 0.25 0"/><feBlend in2="BackgroundImageFix" mode="normal" result="effect1_dropShadow_431_1304"/><feBlend in="SourceGraphic" in2="effect1_dropShadow_431_1304" mode="normal" result="shape"/></filter><g filter="url(#a)"><path clip-rule="evenodd" d="m8.41667.25h29.16663c2.2917 0 4.1667 1.875 4.1667 4.16667v29.16663c0 2.2917-1.875 4.1667-4.1667 4.1667h-29.16663c-2.29167 0-4.16667-1.875-4.16667-4.1667v-29.16663c0-2.29167 1.875-4.16667 4.16667-4.16667zm4.16663 29.1667h4.1667v-14.5834h-4.1667zm12.5 0h-4.1666v-20.83337h4.1666zm4.1667 0h4.1667v-8.3334h-4.1667z" fill="#F0F0F0" fill-rule="evenodd"/></g></svg>

<svg width="46" height="46" viewBox="0 0 46 46" fill="none" xmlns="http://www.w3.org/2000/svg">
<g filter="url(#filter0_d_431_1304)">
<path fill-rule="evenodd" clip-rule="evenodd" d="M8.41667 0.25H37.5833C39.875 0.25 41.75 2.125 41.75 4.41667V33.5833C41.75 35.875 39.875 37.75 37.5833 37.75H8.41667C6.125 37.75 4.25 35.875 4.25 33.5833V4.41667C4.25 2.125 6.125 0.25 8.41667 0.25ZM12.5833 29.4167H16.75V14.8333H12.5833V29.4167ZM25.0833 29.4167H20.9167V8.58333H25.0833V29.4167ZM29.25 29.4167H33.4167V21.0833H29.25V29.4167Z" fill="#494440"/>
</g>
<defs>
<filter id="filter0_d_431_1304" x="0.25" y="0.25" width="45.5" height="45.5" filterUnits="userSpaceOnUse" color-interpolation-filters="sRGB">
<feFlood flood-opacity="0" result="BackgroundImageFix"/>
<feColorMatrix in="SourceAlpha" type="matrix" values="0 0 0 0 0 0 0 0 0 0 0 0 0 0 0 0 0 0 127 0" result="hardAlpha"/>
<feOffset dy="4"/>
<feGaussianBlur stdDeviation="2"/>
<feComposite in2="hardAlpha" operator="out"/>
<feColorMatrix type="matrix" values="0 0 0 0 0 0 0 0 0 0 0 0 0 0 0 0 0 0 0.25 0"/>
<feBlend mode="normal" in2="BackgroundImageFix" result="effect1_dropShadow_431_1304"/>
<feBlend mode="normal" in="SourceGraphic" in2="effect1_dropShadow_431_1304" result="shape"/>
</filter>
</defs>
</svg>
